X:12
T:The Dusty Windowsill
C:Johnny Harling
M:6/8
L:1/8
R:Jig
A:Ireland
K:ADor
E|A2B cBA|eAB cBA| ~G3 EGG | DGG EFG | 
A2B cBA| e2d efg |{b}age dBe | ABA A2 :|
e|~a3 age |dBd ~g3 |gag gfe |dBA G3 | 
EGG DGG | EFG ABc | Bed BAG | ABA A2 :|
E|~A3 g2f | ~A3 ged |~G3 e2d| ~G3 edB | 
ABA g3 | A3 efg |{b}age dBe | ABA A2 :|
